P2
# Synthetic teaching face image
32 32
255
235 235 235 235 235 235 235 235 235 235 235 235 235 235 235 235 235 235 235 235 235 235 235 235 235 235 235 235 235 235 235 235
235 235 235 235 235 235 235 235 235 235 235 235 235 235 235 235 235 235 235 235 235 235 235 235 235 235 235 235 235 235 235 235
235 235 235 235 235 235 235 235 235 235 235 235 235 235 235 235 235 235 235 235 235 235 235 235 235 235 235 235 235 235 235 235
235 235 235 235 235 235 235 235 235 235 235 235 235 235 235 235 235 235 235 235 235 235 235 235 235 235 235 235 235 235 235 235
235 235 235 235 235 235 235 235 235 235 235 235 235 235 235 235 150 235 235 235 235 235 235 235 235 235 235 235 235 235 235 235
235 235 235 235 235 235 235 235 235 235 235 235 150 150 150 150 150 150 150 150 150 235 235 235 235 235 235 235 235 235 235 235
235 235 235 235 235 235 235 235 235 235 150 150 150 150 150 150 150 150 150 150 150 150 150 235 235 235 235 235 235 235 235 235
235 235 235 235 235 235 235 235 235 150 150 150 150 150 150 150 150 150 150 150 150 150 150 150 235 235 235 235 235 235 235 235
235 235 235 235 235 235 235 235 150 150 150 150 150 150 150 150 150 150 150 150 150 150 150 150 150 235 235 235 235 235 235 235
235 235 235 235 235 235 235 150 150 150 150 150 150 150 150 150 150 150 150 150 150 150 150 150 150 150 235 235 235 235 235 235
235 235 235 235 235 235 150 150 150 150 150 150 150 150 150 150 150 150 150 150 150 150 150 150 150 150 150 235 235 235 235 235
235 235 235 235 235 235 150 150 150 150 150 150 150 150 150 150 150 150 150 150 150 150 150 150 150 150 150 235 235 235 235 235
235 235 235 235 235 150 150 150 150 35 35 35 150 150 150 150 150 150 150 150 35 35 35 150 150 150 150 150 235 235 235 235
235 235 235 235 235 150 150 150 150 35 35 35 150 150 150 150 150 150 150 150 35 35 35 150 150 150 150 150 235 235 235 235
235 235 235 235 235 150 150 150 150 35 35 35 150 150 150 150 150 150 150 150 35 35 35 150 150 150 150 150 235 235 235 235
235 235 235 235 235 150 150 150 150 150 150 150 150 150 150 70 150 150 150 150 150 150 150 150 150 150 150 150 235 235 235 235
235 235 235 235 150 150 150 150 150 150 150 150 150 150 150 70 150 150 150 150 150 150 150 150 150 150 150 150 150 235 235 235
235 235 235 235 235 150 150 150 150 150 150 150 150 150 150 150 70 150 150 150 150 150 150 150 150 150 150 150 235 235 235 235
235 235 235 235 235 150 150 150 150 150 150 150 150 150 150 150 70 150 150 150 150 150 150 150 150 150 150 150 235 235 235 235
235 235 235 235 235 150 150 150 150 150 150 150 150 150 150 150 150 70 150 150 150 150 150 150 150 150 150 150 235 235 235 235
235 235 235 235 235 150 150 150 150 150 150 150 150 150 150 150 150 150 150 150 150 150 150 150 150 150 150 150 235 235 235 235
235 235 235 235 235 235 150 150 150 150 150 150 150 150 150 150 150 150 150 150 150 150 150 150 150 150 150 235 235 235 235 235
235 235 235 235 235 235 150 150 150 150 150 45 150 150 150 150 150 150 150 150 150 45 150 150 150 150 150 235 235 235 235 235
235 235 235 235 235 235 235 150 150 150 150 150 45 150 150 150 150 150 150 150 45 150 150 150 150 150 235 235 235 235 235 235
235 235 235 235 235 235 235 235 150 150 150 150 150 45 45 45 45 45 45 45 150 150 150 150 150 235 235 235 235 235 235 235
235 235 235 235 235 235 235 235 235 150 150 150 150 150 150 150 150 150 150 150 150 150 150 150 235 235 235 235 235 235 235 235
235 235 235 235 235 235 235 235 235 235 150 150 150 150 150 150 150 150 150 150 150 150 150 235 235 235 235 235 235 235 235 235
235 235 235 235 235 235 235 235 235 235 235 235 150 150 150 150 150 150 150 150 150 235 235 235 235 235 235 235 235 235 235 235
235 235 235 235 235 235 235 235 235 235 235 235 235 235 235 235 150 235 235 235 235 235 235 235 235 235 235 235 235 235 235 235
235 235 235 235 235 235 235 235 235 235 235 235 235 235 235 235 235 235 235 235 235 235 235 235 235 235 235 235 235 235 235 235
235 235 235 235 235 235 235 235 235 235 235 235 235 235 235 235 235 235 235 235 235 235 235 235 235 235 235 235 235 235 235 235
235 235 235 235 235 235 235 235 235 235 235 235 235 235 235 235 235 235 235 235 235 235 235 235 235 235 235 235 235 235 235 235
